X: 1
T: Bourr\'ee Carr\'ee de Vouvray
C: Gilles Chabenat
R: bourree 2
%P: Bourr\ee \`a Six
%Q: 1/4=138
S: Qu\'ebec City workshop, from Betsy Hooper
M: 2/4
L: 1/8
K: D
|:\
"D"D>E FG | "D"A3 A | "Gm"G>A _BG | "A"A>G FE |\
"D"D>E FG | "D"A3 A | "Gm"G>A GF | "Am"E4 :|
|:\
"D"d>F GA | "C"=c>B AG | "Bm"F>E FG | "D/A"A4 |\
"D"d>F GA | "C"=c>B AG | "Bm"Fd "C"FE | "D"D4 :|
